X: 35764
T: Sally Gally
R: jig
M: 6/8
K: Gmajor
|:e3 edB|A3 AGA|B2 d d2 B|G3 (GB) B|
c3 B2 A|G2 E D3|G2 G GAB|A3 GAB|
eee edB|A3 AGA|B2 d d2 B|E3 EGA|
BAB d2 B|AGA B2 D|E2G G BA|G3 (GBd):|
|:e3 eeg|e2 d B3|d3 ddB|d3 GBd|
e3 eeg|e2 e B3|G3 GAB|A3 AGA|
A2 d d2 B|A3 AGA|B2 d d2 B|E3 AGG|
B2 d d2 B|AGA B3|D E2 A G2|BA G3-|G3 (GBd):|

